badges/fathom-dark.svg

<svg width="110" height="40" viewBox="0 0 110 40" fill="none" xmlns="http://www.w3.org/2000/svg">
<rect x="0.5" y="0.5" width="109" height="39" rx="4.5" fill="black"/>
<path fill-rule="evenodd" clip-rule="evenodd" d="M10.5247 29.4753C8.68315 27.6337 8 24.6337 8 20C8 15.3663 8.68315 12.3662 10.5247 10.5247C12.3662 8.68315 15.3663 8 20 8C24.6337 8 27.6337 8.68315 29.4753 10.5247C31.3168 12.3662 32 15.3663 32 20C32 24.6337 31.3168 27.6337 29.4753 29.4753C27.6337 31.3168 24.6337 32 20 32C15.3663 32 12.3662 31.3168 10.5247 29.4753Z" fill="white"/>
<path fill-rule="evenodd" clip-rule="evenodd" d="M23.6061 26.2497V13.7524C24.7009 14.386 25.61 15.297 26.2421 16.3938C26.8742 17.4906 27.2069 18.7347 27.2069 20.0011C27.2069 21.2674 26.8742 22.5115 26.2421 23.6083C25.61 24.7051 24.7009 25.6161 23.6061 26.2497ZM18.7409 15.8714C19.8292 15.8794 20.8702 16.318 21.637 17.0915C22.4038 17.865 22.834 18.9108 22.834 20.0007C22.834 21.0907 22.4038 22.1364 21.637 22.91C20.8702 23.6835 19.8292 24.1221 18.7409 24.1301V15.8714ZM15.4175 17.5402C15.9036 17.5401 16.3788 17.6844 16.7831 17.9549C17.1873 18.2253 17.5023 18.6097 17.6884 19.0595C17.8744 19.5092 17.9231 20.0042 17.8283 20.4816C17.7335 20.9591 17.4994 21.3977 17.1556 21.7419C16.8119 22.0862 16.374 22.3206 15.8972 22.4156C15.4204 22.5105 14.9262 22.4618 14.4771 22.2754C14.028 22.0891 13.6441 21.7736 13.3741 21.3688C13.104 20.964 12.9599 20.4881 12.96 20.0013C12.96 19.3485 13.2189 18.7226 13.6798 18.261C14.1406 17.7995 14.7657 17.5402 15.4175 17.5402Z" fill="black"/>
<path d="M39.7486 14.5V8.31818H40.4972V13.8359H43.3707V14.5H39.7486ZM44.4332 14.5V9.86364H45.1456V14.5H44.4332ZM44.7955 9.09091C44.6566 9.09091 44.5369 9.04362 44.4363 8.94904C44.3377 8.85446 44.2884 8.74077 44.2884 8.60795C44.2884 8.47514 44.3377 8.36145 44.4363 8.26687C44.5369 8.17229 44.6566 8.125 44.7955 8.125C44.9343 8.125 45.053 8.17229 45.1516 8.26687C45.2522 8.36145 45.3026 8.47514 45.3026 8.60795C45.3026 8.74077 45.2522 8.85446 45.1516 8.94904C45.053 9.04362 44.9343 9.09091 44.7955 9.09091ZM49.7344 10.902L49.0945 11.0831C49.0543 10.9764 48.9949 10.8728 48.9164 10.7722C48.8399 10.6696 48.7353 10.585 48.6025 10.5186C48.4697 10.4522 48.2996 10.419 48.0924 10.419C47.8086 10.419 47.5722 10.4844 47.383 10.6152C47.1959 10.744 47.1023 10.908 47.1023 11.1072C47.1023 11.2843 47.1667 11.4242 47.2955 11.5268C47.4243 11.6294 47.6255 11.715 47.8992 11.7834L48.5874 11.9524C49.0019 12.053 49.3108 12.207 49.5141 12.4142C49.7173 12.6195 49.8189 12.8841 49.8189 13.2081C49.8189 13.4737 49.7425 13.7112 49.5895 13.9205C49.4386 14.1297 49.2273 14.2947 48.9557 14.4155C48.684 14.5362 48.3681 14.5966 48.0079 14.5966C47.535 14.5966 47.1436 14.494 46.8337 14.2887C46.5238 14.0835 46.3276 13.7836 46.2451 13.3892L46.9212 13.2202C46.9856 13.4697 47.1073 13.6568 47.2864 13.7816C47.4676 13.9064 47.704 13.9688 47.9958 13.9688C48.3278 13.9688 48.5914 13.8983 48.7866 13.7575C48.9838 13.6146 49.0824 13.4435 49.0824 13.2443C49.0824 13.0833 49.0261 12.9485 48.9134 12.8398C48.8007 12.7292 48.6276 12.6467 48.3942 12.5923L47.6215 12.4112C47.1969 12.3106 46.885 12.1547 46.6858 11.9434C46.4886 11.7301 46.39 11.4634 46.39 11.1435C46.39 10.8819 46.4634 10.6504 46.6103 10.4492C46.7592 10.248 46.9615 10.09 47.217 9.97532C47.4746 9.86062 47.7664 9.80327 48.0924 9.80327C48.5512 9.80327 48.9114 9.90388 49.173 10.1051C49.4366 10.3063 49.6237 10.572 49.7344 10.902ZM52.9076 9.86364V10.4673H50.5049V9.86364H52.9076ZM51.2052 8.75284H51.9175V13.1719C51.9175 13.3731 51.9467 13.524 52.0051 13.6246C52.0654 13.7232 52.1419 13.7897 52.2345 13.8239C52.329 13.8561 52.4287 13.8722 52.5333 13.8722C52.6118 13.8722 52.6762 13.8681 52.7265 13.8601C52.7768 13.85 52.817 13.842 52.8472 13.8359L52.9921 14.4759C52.9438 14.494 52.8764 14.5121 52.7899 14.5302C52.7033 14.5503 52.5937 14.5604 52.4608 14.5604C52.2596 14.5604 52.0624 14.5171 51.8692 14.4306C51.6781 14.344 51.5191 14.2122 51.3923 14.0352C51.2675 13.8581 51.2052 13.6347 51.2052 13.3651V8.75284ZM55.8732 14.5966C55.4265 14.5966 55.0411 14.498 54.7172 14.3008C54.3952 14.1016 54.1467 13.8239 53.9716 13.4677C53.7985 13.1095 53.712 12.6929 53.712 12.218C53.712 11.7431 53.7985 11.3246 53.9716 10.9624C54.1467 10.5981 54.3902 10.3144 54.7021 10.1112C55.016 9.90589 55.3822 9.80327 55.8008 9.80327C56.0423 9.80327 56.2807 9.84351 56.5162 9.92401C56.7516 10.0045 56.9659 10.1353 57.1591 10.3164C57.3523 10.4955 57.5062 10.733 57.6209 11.0288C57.7356 11.3246 57.793 11.6888 57.793 12.1214V12.4233H54.2191V11.8075H57.0685C57.0685 11.5459 57.0162 11.3125 56.9116 11.1072C56.8089 10.902 56.6621 10.74 56.4709 10.6213C56.2817 10.5025 56.0584 10.4432 55.8008 10.4432C55.517 10.4432 55.2715 10.5136 55.0643 10.6545C54.859 10.7933 54.7011 10.9744 54.5904 11.1978C54.4797 11.4212 54.4244 11.6606 54.4244 11.9162V12.3267C54.4244 12.6768 54.4847 12.9737 54.6055 13.2172C54.7282 13.4586 54.8983 13.6428 55.1156 13.7695C55.3329 13.8943 55.5855 13.9567 55.8732 13.9567C56.0604 13.9567 56.2294 13.9305 56.3803 13.8782C56.5333 13.8239 56.6651 13.7434 56.7757 13.6367C56.8864 13.5281 56.9719 13.3932 57.0323 13.2322L57.7205 13.4254C57.6481 13.6589 57.5263 13.8641 57.3553 14.0412C57.1842 14.2163 56.973 14.3531 56.7214 14.4517C56.4699 14.5483 56.1871 14.5966 55.8732 14.5966ZM59.589 11.7109V14.5H58.8766V9.86364H59.5648V10.5881H59.6252C59.7338 10.3526 59.8989 10.1635 60.1202 10.0206C60.3416 9.87571 60.6273 9.80327 60.9775 9.80327C61.2914 9.80327 61.5661 9.86766 61.8015 9.99645C62.0369 10.1232 62.2201 10.3164 62.3509 10.576C62.4817 10.8336 62.5471 11.1596 62.5471 11.554V14.5H61.8347V11.6023C61.8347 11.238 61.7401 10.9543 61.551 10.7511C61.3618 10.5458 61.1022 10.4432 60.7722 10.4432C60.5448 10.4432 60.3416 10.4925 60.1625 10.5911C59.9854 10.6897 59.8455 10.8336 59.7429 11.0227C59.6403 11.2119 59.589 11.4413 59.589 11.7109ZM68.1229 14.5966C67.7044 14.5966 67.3371 14.497 67.0212 14.2978C66.7073 14.0985 66.4618 13.8198 66.2847 13.4616C66.1096 13.1035 66.0221 12.6849 66.0221 12.206C66.0221 11.723 66.1096 11.3014 66.2847 10.9412C66.4618 10.581 66.7073 10.3013 67.0212 10.1021C67.3371 9.90288 67.7044 9.80327 68.1229 9.80327C68.5415 9.80327 68.9077 9.90288 69.2216 10.1021C69.5376 10.3013 69.7831 10.581 69.9581 10.9412C70.1352 11.3014 70.2238 11.723 70.2238 12.206C70.2238 12.6849 70.1352 13.1035 69.9581 13.4616C69.7831 13.8198 69.5376 14.0985 69.2216 14.2978C68.9077 14.497 68.5415 14.5966 68.1229 14.5966ZM68.1229 13.9567C68.4409 13.9567 68.7025 13.8752 68.9077 13.7122C69.113 13.5492 69.2649 13.3349 69.3635 13.0692C69.4621 12.8036 69.5114 12.5159 69.5114 12.206C69.5114 11.8961 69.4621 11.6073 69.3635 11.3397C69.2649 11.072 69.113 10.8557 68.9077 10.6907C68.7025 10.5257 68.4409 10.4432 68.1229 10.4432C67.805 10.4432 67.5434 10.5257 67.3381 10.6907C67.1329 10.8557 66.9809 11.072 66.8823 11.3397C66.7837 11.6073 66.7344 11.8961 66.7344 12.206C66.7344 12.5159 66.7837 12.8036 66.8823 13.0692C66.9809 13.3349 67.1329 13.5492 67.3381 13.7122C67.5434 13.8752 67.805 13.9567 68.1229 13.9567ZM72.0235 11.7109V14.5H71.3112V9.86364H71.9994V10.5881H72.0597C72.1684 10.3526 72.3334 10.1635 72.5548 10.0206C72.7761 9.87571 73.0619 9.80327 73.412 9.80327C73.7259 9.80327 74.0006 9.86766 74.2361 9.99645C74.4715 10.1232 74.6546 10.3164 74.7854 10.576C74.9162 10.8336 74.9816 11.1596 74.9816 11.554V14.5H74.2693V11.6023C74.2693 11.238 74.1747 10.9543 73.9855 10.7511C73.7964 10.5458 73.5368 10.4432 73.2068 10.4432C72.9794 10.4432 72.7761 10.4925 72.597 10.5911C72.42 10.6897 72.2801 10.8336 72.1775 11.0227C72.0748 11.2119 72.0235 11.4413 72.0235 11.7109Z" fill="white"/>
<path d="M39.5412 30.5V17.7727H47.1726V19.1399H41.0824V23.4403H46.6009V24.8075H41.0824V30.5H39.5412ZM52.1723 30.7237C51.5674 30.7237 51.0185 30.6098 50.5254 30.3819C50.0324 30.1499 49.6409 29.8164 49.3509 29.3814C49.0609 28.9422 48.9159 28.4119 48.9159 27.7905C48.9159 27.2436 49.0236 26.8003 49.239 26.4606C49.4545 26.1167 49.7424 25.8474 50.1028 25.6527C50.4633 25.458 50.861 25.313 51.296 25.2177C51.7352 25.1183 52.1764 25.0395 52.6197 24.9815C53.1997 24.907 53.67 24.851 54.0304 24.8137C54.395 24.7723 54.6601 24.704 54.8259 24.6087C54.9957 24.5134 55.0807 24.3477 55.0807 24.1115V24.0618C55.0807 23.4486 54.9129 22.9722 54.5773 22.6325C54.2458 22.2927 53.7425 22.1229 53.0672 22.1229C52.367 22.1229 51.818 22.2762 51.4203 22.5827C51.0226 22.8893 50.7429 23.2166 50.5814 23.5646L49.1893 23.0675C49.4379 22.4875 49.7693 22.0359 50.1836 21.7127C50.6021 21.3854 51.0578 21.1576 51.5508 21.0291C52.048 20.8965 52.5369 20.8303 53.0174 20.8303C53.324 20.8303 53.6762 20.8675 54.0739 20.9421C54.4758 21.0125 54.8631 21.1596 55.236 21.3833C55.613 21.6071 55.9258 21.9447 56.1744 22.3963C56.423 22.8479 56.5473 23.4528 56.5473 24.2109V30.5H55.0807V29.2074H55.0061C54.9066 29.4145 54.7409 29.6362 54.5089 29.8723C54.2769 30.1085 53.9683 30.3094 53.583 30.4751C53.1977 30.6409 52.7274 30.7237 52.1723 30.7237ZM52.396 29.4062C52.976 29.4062 53.4649 29.2923 53.8626 29.0645C54.2645 28.8366 54.5669 28.5424 54.7699 28.182C54.9771 27.8216 55.0807 27.4425 55.0807 27.0447V25.7024C55.0185 25.777 54.8818 25.8453 54.6705 25.9075C54.4633 25.9655 54.2231 26.0173 53.9496 26.0629C53.6803 26.1043 53.4172 26.1416 53.1604 26.1747C52.9077 26.2037 52.7026 26.2286 52.5451 26.2493C52.164 26.299 51.8077 26.3798 51.4763 26.4917C51.149 26.5994 50.8838 26.763 50.6808 26.9826C50.4819 27.198 50.3825 27.4922 50.3825 27.8651C50.3825 28.3746 50.571 28.7599 50.948 29.021C51.3292 29.2778 51.8118 29.4062 52.396 29.4062ZM63.1254 20.9545V22.1974H58.1787V20.9545H63.1254ZM59.6205 18.6676H61.0871V27.7656C61.0871 28.1799 61.1472 28.4906 61.2673 28.6978C61.3916 28.9008 61.549 29.0375 61.7396 29.108C61.9343 29.1742 62.1394 29.2074 62.3548 29.2074C62.5164 29.2074 62.649 29.1991 62.7526 29.1825C62.8561 29.1618 62.939 29.1452 63.0012 29.1328L63.2994 30.4503C63.2 30.4876 63.0612 30.5249 62.8831 30.5621C62.7049 30.6036 62.4791 30.6243 62.2057 30.6243C61.7914 30.6243 61.3854 30.5352 60.9877 30.3571C60.5941 30.1789 60.2668 29.9076 60.0058 29.543C59.7489 29.1784 59.6205 28.7185 59.6205 28.1634V18.6676ZM66.7533 24.7578V30.5H65.2867V17.7727H66.7533V22.446H66.8776C67.1013 21.953 67.4369 21.5615 67.8843 21.2715C68.3359 20.9773 68.9366 20.8303 69.6865 20.8303C70.337 20.8303 70.9066 20.9608 71.3955 21.2218C71.8844 21.4786 72.2635 21.8743 72.5328 22.4087C72.8062 22.939 72.9429 23.6143 72.9429 24.4347V30.5H71.4763V24.5341C71.4763 23.7759 71.2795 23.1897 70.8859 22.7754C70.4965 22.3569 69.9558 22.1477 69.2639 22.1477C68.7834 22.1477 68.3525 22.2492 67.9713 22.4522C67.5943 22.6552 67.296 22.9515 67.0764 23.3409C66.861 23.7303 66.7533 24.2027 66.7533 24.7578ZM79.2539 30.6989C78.3921 30.6989 77.636 30.4938 76.9856 30.0836C76.3393 29.6735 75.8338 29.0997 75.4692 28.3622C75.1088 27.6248 74.9286 26.763 74.9286 25.777C74.9286 24.7827 75.1088 23.9147 75.4692 23.1731C75.8338 22.4315 76.3393 21.8556 76.9856 21.4455C77.636 21.0353 78.3921 20.8303 79.2539 20.8303C80.1156 20.8303 80.8696 21.0353 81.5159 21.4455C82.1664 21.8556 82.6718 22.4315 83.0323 23.1731C83.3969 23.9147 83.5791 24.7827 83.5791 25.777C83.5791 26.763 83.3969 27.6248 83.0323 28.3622C82.6718 29.0997 82.1664 29.6735 81.5159 30.0836C80.8696 30.4938 80.1156 30.6989 79.2539 30.6989ZM79.2539 29.3814C79.9085 29.3814 80.447 29.2136 80.8696 28.878C81.2922 28.5424 81.605 28.1012 81.808 27.5543C82.011 27.0075 82.1125 26.415 82.1125 25.777C82.1125 25.139 82.011 24.5444 81.808 23.9934C81.605 23.4424 81.2922 22.997 80.8696 22.6573C80.447 22.3176 79.9085 22.1477 79.2539 22.1477C78.5993 22.1477 78.0607 22.3176 77.6381 22.6573C77.2155 22.997 76.9027 23.4424 76.6997 23.9934C76.4967 24.5444 76.3952 25.139 76.3952 25.777C76.3952 26.415 76.4967 27.0075 76.6997 27.5543C76.9027 28.1012 77.2155 28.5424 77.6381 28.878C78.0607 29.2136 78.5993 29.3814 79.2539 29.3814ZM85.5679 30.5V20.9545H86.9848V22.446H87.1091C87.308 21.9364 87.6291 21.5408 88.0724 21.2591C88.5157 20.9732 89.048 20.8303 89.6695 20.8303C90.2992 20.8303 90.8233 20.9732 91.2417 21.2591C91.6643 21.5408 91.9937 21.9364 92.2298 22.446H92.3293C92.5737 21.953 92.9404 21.5615 93.4292 21.2715C93.9181 20.9773 94.5044 20.8303 95.1879 20.8303C96.0414 20.8303 96.7395 21.0975 97.2822 21.6319C97.825 22.1622 98.0963 22.9888 98.0963 24.1115V30.5H96.6297V24.1115C96.6297 23.4072 96.4371 22.9038 96.0518 22.6014C95.6665 22.2989 95.2128 22.1477 94.6908 22.1477C94.0196 22.1477 93.4997 22.3507 93.1309 22.7567C92.7622 23.1586 92.5779 23.6682 92.5779 24.2855V30.5H91.0864V23.9624C91.0864 23.4196 90.9103 22.9825 90.5582 22.6511C90.206 22.3155 89.7523 22.1477 89.1972 22.1477C88.816 22.1477 88.4597 22.2492 88.1283 22.4522C87.801 22.6552 87.5358 22.937 87.3328 23.2974C87.134 23.6537 87.0345 24.0659 87.0345 24.5341V30.5H85.5679Z" fill="white"/>
<rect x="0.5" y="0.5" width="109" height="39" rx="4.5" stroke="#A6A6A6"/>
</svg>

<svg xmlns="http://www.w3.org/2000/svg" width="110" height="40" fill="none" viewBox="0 0 110 40">
  <rect width="109" height="39" x=".5" y=".5" fill="#000" rx="4.5"/>
  <rect width="109" height="39" x=".5" y=".5" stroke="#A6A6A6" rx="4.5"/>
  <path fill="#fff" fill-rule="evenodd" d="M26.018 30.527V9.475a12.148 12.148 0 0 1 4.44 4.45 12.17 12.17 0 0 1-4.44 16.602Zm-8.196-17.483A6.941 6.941 0 0 1 22.7 15.1a6.961 6.961 0 0 1 0 9.801 6.94 6.94 0 0 1-4.88 2.056V13.044Zm-5.599 2.811a4.137 4.137 0 0 1 3.826 2.56 4.152 4.152 0 0 1-.898 4.519A4.138 4.138 0 0 1 8.084 20c0-1.1.436-2.154 1.212-2.931a4.137 4.137 0 0 1 2.927-1.215Z" clip-rule="evenodd"/>
  <path fill="#fff" d="M39.749 14.5V8.318h.748v5.518h2.874v.664h-3.622Zm4.684 0V9.864h.713V14.5h-.713Zm.362-5.41a.506.506 0 0 1-.359-.141.456.456 0 0 1-.148-.341c0-.133.05-.247.148-.341.1-.095.22-.142.36-.142.138 0 .257.047.356.142.1.094.15.208.15.341 0 .133-.05.246-.15.341a.496.496 0 0 1-.357.142Zm4.94 1.812-.64.181c-.04-.107-.1-.21-.179-.31a.865.865 0 0 0-.313-.254 1.14 1.14 0 0 0-.51-.1c-.284 0-.52.065-.71.196-.187.129-.28.293-.28.492a.51.51 0 0 0 .192.42c.13.102.33.188.604.256l.688.17c.415.1.724.254.927.461.203.206.305.47.305.794 0 .266-.077.503-.23.713-.15.209-.362.374-.633.495a2.33 2.33 0 0 1-.948.18c-.473 0-.864-.102-1.174-.307-.31-.205-.506-.505-.589-.9l.676-.169c.065.25.186.437.365.562.182.124.418.187.71.187.332 0 .595-.07.79-.211.198-.143.296-.314.296-.514a.54.54 0 0 0-.169-.404c-.112-.11-.285-.193-.519-.248l-.773-.18c-.424-.101-.736-.257-.935-.469a1.133 1.133 0 0 1-.296-.8c0-.261.073-.493.22-.694a1.5 1.5 0 0 1 .607-.474 2.13 2.13 0 0 1 .875-.172c.46 0 .82.1 1.081.302.264.201.45.467.561.797Zm3.173-1.038v.603h-2.403v-.603h2.403Zm-1.703-1.111h.712v4.419c0 .201.03.352.088.453.06.098.137.165.23.199a.92.92 0 0 0 .298.048c.079 0 .143-.004.194-.012l.12-.024.145.64a1.491 1.491 0 0 1-.531.085c-.201 0-.399-.044-.592-.13a1.177 1.177 0 0 1-.477-.396c-.125-.177-.187-.4-.187-.67V8.753Zm4.668 5.844c-.447 0-.832-.099-1.156-.296a1.99 1.99 0 0 1-.745-.833c-.174-.358-.26-.775-.26-1.25s.086-.893.26-1.256c.175-.364.418-.648.73-.85.314-.206.68-.309 1.099-.309.241 0 .48.04.715.121.236.08.45.211.643.392.193.18.347.417.462.713.115.296.172.66.172 1.092v.302h-3.574v-.616h2.85a1.52 1.52 0 0 0-.157-.7 1.183 1.183 0 0 0-.441-.486 1.234 1.234 0 0 0-.67-.178c-.284 0-.53.07-.737.212a1.39 1.39 0 0 0-.474.543c-.11.223-.166.463-.166.718v.41c0 .35.06.648.181.891.123.242.293.426.51.553.218.124.47.187.758.187.187 0 .356-.027.507-.079.153-.054.285-.135.396-.241.11-.109.196-.244.256-.405l.689.193a1.526 1.526 0 0 1-.366.616 1.78 1.78 0 0 1-.634.41 2.35 2.35 0 0 1-.848.146Zm3.716-2.886V14.5h-.712V9.864h.688v.724h.06a1.33 1.33 0 0 1 .495-.567c.222-.145.507-.218.858-.218.313 0 .588.065.823.193.236.127.42.32.55.58.13.258.196.584.196.978V14.5h-.712v-2.898c0-.364-.095-.648-.284-.85-.19-.206-.449-.309-.779-.309-.227 0-.43.05-.61.148a1.058 1.058 0 0 0-.42.432 1.43 1.43 0 0 0-.153.688Zm8.534 2.886c-.419 0-.786-.1-1.102-.3a2.018 2.018 0 0 1-.736-.835c-.175-.358-.263-.777-.263-1.256 0-.483.088-.905.263-1.265.177-.36.422-.64.736-.839.316-.2.683-.299 1.102-.299.418 0 .785.1 1.099.3.316.198.561.478.736.838.177.36.266.782.266 1.265 0 .479-.089.898-.266 1.256-.175.358-.42.636-.736.836a2.01 2.01 0 0 1-1.1.299Zm0-.64c.318 0 .58-.082.785-.245a1.44 1.44 0 0 0 .456-.643 2.47 2.47 0 0 0 .147-.863c0-.31-.049-.599-.147-.866a1.46 1.46 0 0 0-.456-.65c-.206-.164-.467-.247-.785-.247s-.58.083-.785.248a1.46 1.46 0 0 0-.456.649 2.487 2.487 0 0 0-.148.866c0 .31.05.598.148.863.099.266.25.48.456.643.205.163.467.245.785.245Zm3.9-2.246V14.5h-.712V9.864H72v.724h.06c.11-.235.274-.424.496-.567.221-.145.507-.218.857-.218.314 0 .589.065.824.193a1.3 1.3 0 0 1 .55.58c.13.258.196.584.196.978V14.5h-.713v-2.898c0-.364-.094-.648-.284-.85-.189-.206-.448-.309-.778-.309-.228 0-.43.05-.61.148a1.059 1.059 0 0 0-.42.432 1.43 1.43 0 0 0-.154.688ZM39.541 30.5V17.773h7.632v1.367h-6.09v4.3H46.6v1.367h-5.519V30.5h-1.54Zm12.631.224a3.879 3.879 0 0 1-1.647-.342 2.826 2.826 0 0 1-1.174-1c-.29-.44-.435-.97-.435-1.591 0-.547.108-.99.323-1.33.216-.344.503-.614.864-.808.36-.195.758-.34 1.193-.435.44-.1.88-.178 1.324-.236a56.63 56.63 0 0 1 1.41-.168c.365-.042.63-.11.796-.205.17-.096.255-.261.255-.498v-.05c0-.612-.168-1.089-.504-1.428-.331-.34-.834-.51-1.51-.51-.7 0-1.249.153-1.647.46-.397.306-.677.634-.839.982l-1.392-.498c.249-.58.58-1.031.995-1.354a3.728 3.728 0 0 1 1.367-.684 5.676 5.676 0 0 1 1.466-.199c.307 0 .66.038 1.057.112.402.07.79.218 1.162.441.377.224.69.562.938 1.013.249.452.373 1.057.373 1.815V30.5h-1.466v-1.293h-.075c-.1.207-.265.43-.497.665-.232.236-.54.437-.926.603-.385.166-.856.249-1.41.249Zm.224-1.318c.58 0 1.069-.114 1.467-.341a2.327 2.327 0 0 0 1.218-2.02v-1.343c-.063.075-.2.143-.41.205-.208.058-.448.11-.721.156a32.755 32.755 0 0 1-1.405.186c-.381.05-.737.13-1.069.243a1.842 1.842 0 0 0-.795.49c-.2.216-.298.51-.298.883 0 .51.188.895.565 1.156.381.257.864.385 1.448.385Zm10.73-8.451v1.242h-4.947v-1.242h4.946Zm-3.505-2.287h1.466v9.098c0 .414.06.725.18.932.125.203.282.34.473.41.194.066.4.1.615.1.161 0 .294-.009.398-.025l.248-.05.298 1.317a2.83 2.83 0 0 1-.416.112 3.062 3.062 0 0 1-.677.062c-.415 0-.82-.089-1.218-.267a2.42 2.42 0 0 1-.982-.814c-.257-.365-.386-.825-.386-1.38v-9.495Zm7.132 6.09V30.5h-1.466V17.773h1.466v4.673h.125a2.696 2.696 0 0 1 1.006-1.175c.452-.294 1.053-.44 1.802-.44.651 0 1.22.13 1.71.39.488.258.867.653 1.137 1.188.273.53.41 1.205.41 2.026V30.5h-1.467v-5.966c0-.758-.197-1.344-.59-1.759-.39-.418-.93-.627-1.622-.627-.48 0-.911.101-1.293.304-.377.203-.675.5-.895.889-.215.39-.323.862-.323 1.417Zm12.5 5.94c-.86 0-1.617-.204-2.267-.614-.647-.41-1.152-.984-1.517-1.722-.36-.737-.54-1.599-.54-2.585 0-.994.18-1.862.54-2.604.365-.741.87-1.317 1.517-1.727.65-.41 1.406-.616 2.268-.616.862 0 1.616.205 2.262.616.65.41 1.156.985 1.516 1.727.365.742.547 1.61.547 2.604 0 .986-.182 1.848-.547 2.585-.36.738-.866 1.312-1.516 1.722-.646.41-1.4.615-2.262.615Zm0-1.317c.656 0 1.194-.167 1.617-.503.422-.336.735-.777.938-1.324a5.063 5.063 0 0 0 .304-1.777 5.12 5.12 0 0 0-.304-1.784 3.006 3.006 0 0 0-.938-1.336c-.423-.34-.962-.51-1.616-.51-.655 0-1.193.17-1.616.51-.422.34-.735.785-.938 1.336a5.12 5.12 0 0 0-.305 1.784c0 .638.102 1.23.305 1.777.203.547.516.988.938 1.324.423.336.961.503 1.616.503Zm6.315 1.119v-9.546h1.417v1.492h.124a2.4 2.4 0 0 1 .963-1.187c.444-.286.976-.429 1.597-.429.63 0 1.154.143 1.573.43.422.28.752.676.988 1.186h.1a2.78 2.78 0 0 1 1.1-1.175c.488-.294 1.074-.44 1.758-.44.853 0 1.552.267 2.094.8.543.531.814 1.358.814 2.48V30.5H96.63v-6.389c0-.704-.193-1.207-.578-1.51a2.139 2.139 0 0 0-1.361-.453c-.671 0-1.191.203-1.56.609-.369.402-.553.911-.553 1.528V30.5h-1.492v-6.538c0-.542-.176-.98-.528-1.31-.352-.337-.806-.504-1.36-.504a2.01 2.01 0 0 0-1.07.304 2.3 2.3 0 0 0-.795.845 2.496 2.496 0 0 0-.299 1.237V30.5h-1.466Z"/>
</svg>
